X:485
T:Ben Lennon's Barndance #1
R:Barndance
Z:Alf Warnock - alf0@rogers.com - http://members.rogers.com/alf0
Z:Learned from Mick Moloney, Gaelic Roots 2002
M:4/4
L:1/8
K:G
A|:"G"BGDG B2B2|BAGB d2d2|efge "Em"B2cB|"D7"AGFG A3A|
"G"BGDG B2B2|BAGB d2d2|efge "Em"B2cB|"D7"AGFA "G"G4:|
|:"G"g2gd B2B2|BAGB d2d2|efgd "Em"B2cB|"D7"AGFG A4|
|[1 "G"g2gd B2B2|BAGB d2d2|efgd "Em"B2cB|"D7"AGFA "G"G4:|
|[2"G"BGDG B2B2|BAGB d2d2|efge "Em"B2cB|"D7"AGFA "G"G4|]
